X: 15442
T: Glen Of Aherlow, The
R: reel
M: 4/4
K: Edorian
|:B2AF BFAF|~E3F EDB,D|B2AF BFAF|DFAF FE~E2|
B2AF BFAF|~E3F EDB,A,|B,E~E2 B,EGB|dBAF GE~E2:|
|:eB~B2 efge|fdd2 Adfd|eB~B2 egfe|dBAF GE~E2|
eB~B2 egfe|fdd2 Adfd|~B3d (3efg fe|dBAF GE~E2:|

